static/logos/instatus-wordmark-color.svg

<svg width="100" height="23" viewBox="0 0 100 23" fill="none" xmlns="http://www.w3.org/2000/svg">
<g clip-path="url(#clip0_1_2324)">
<path d="M24.3989 8.16324L23.1562 18.2766H26.4096L27.6522 8.16324H24.3989ZM24.557 3.85484C24.557 4.92058 25.393 5.75959 26.4548 5.75959C27.5167 5.75959 28.3526 4.92058 28.3526 3.85484C28.3526 2.78907 27.5167 1.95007 26.4548 1.95007C25.393 1.95007 24.557 2.78907 24.557 3.85484Z" fill="black"/>
<path d="M30.4458 8.16324L29.2031 18.2766H32.4565L33.0439 13.288C33.1117 12.7437 33.2472 11.7687 33.8347 11.1564C34.2414 10.7483 34.7384 10.6122 35.3032 10.6122C35.642 10.6122 36.1392 10.6802 36.5005 11.043C36.8395 11.4059 36.9072 11.882 36.9072 12.2675C36.9072 12.4263 36.9072 12.8571 36.7718 13.9002L36.2296 18.2766H39.4828L40.0927 13.0838C40.2285 11.9954 40.2509 11.4966 40.2509 11.1564C40.2509 10.5442 40.1831 9.52377 39.3923 8.75278C38.6243 8.00448 37.6076 7.89111 36.7718 7.89111C36.0714 7.89111 35.5065 7.93647 34.7836 8.32196C34.3543 8.5487 33.925 8.86618 33.541 9.27434L33.6991 8.16324H30.4458Z" fill="black"/>
<path d="M50.4204 8.84351C49.0424 7.89113 47.8448 7.82312 47.0991 7.82312C46.3764 7.82312 44.8175 7.89113 43.7782 8.91156C43.236 9.45578 42.8292 10.2948 42.8292 11.2698C42.8292 12.2449 43.2587 12.8118 43.5069 13.0839C43.9814 13.5601 44.6594 13.8322 45.2016 13.9909L45.9243 14.2177C46.1955 14.3084 46.5119 14.3764 46.715 14.5124C46.8732 14.6258 47.0314 14.8072 47.0314 15.1474C47.0314 15.4648 46.8959 15.6462 46.625 15.805C46.3537 15.9637 46.0374 16.0317 45.6307 16.0317C44.9303 16.0317 44.3431 15.7596 44.2299 15.7143C43.8232 15.5329 43.3487 15.2154 42.9874 14.8752L41.6094 17.0748C42.0835 17.5056 42.6033 17.8685 43.1682 18.1179C44.0718 18.5261 44.9303 18.6168 45.7888 18.6168C46.67 18.6168 48.2516 18.4807 49.336 17.3469C49.765 16.9161 50.2849 16.0998 50.2849 14.8526C50.2849 14.0589 50.059 13.4467 49.5392 12.9251C48.9746 12.3356 48.2966 12.1088 47.7998 11.9728L47.0541 11.7687C46.4892 11.61 46.331 11.5419 46.2633 11.4966C46.0147 11.3378 45.947 11.1338 45.947 10.9524C45.947 10.771 46.0374 10.5669 46.1728 10.4535C46.3987 10.2494 46.8282 10.1814 47.1445 10.1814C47.9353 10.1814 48.5902 10.5215 49.0424 10.8617L50.4204 8.84351Z" fill="black"/>
<path d="M58.096 10.7936L58.4123 8.16327H56.4244L56.8308 4.89795H53.5776L53.1708 8.16327H51.996L51.6797 10.7936H52.8545L51.9283 18.2766H55.1815L56.1081 10.7936H58.096Z" fill="black"/>
<path d="M67.3318 9.38773C66.88 8.7528 66.3378 8.39 65.9538 8.20858C65.2985 7.89113 64.5754 7.82312 63.9882 7.82312C62.5875 7.82312 61.3222 8.23128 60.2828 9.29702C59.3116 10.2948 58.6562 11.7913 58.6562 13.6508C58.6562 15.3968 59.2662 16.576 60.0119 17.3696C60.8928 18.2993 61.8871 18.6168 63.1297 18.6168C63.5137 18.6168 64.3045 18.5714 65.0048 18.2539C65.547 18.0045 66.0665 17.551 66.4282 17.1202L66.1797 18.2766H69.4332L70.6758 8.16326H67.4222L67.3318 9.38773ZM64.6885 10.6349C65.5697 10.6349 66.0892 10.9297 66.3828 11.2018C66.8123 11.5873 67.0832 12.2222 67.0832 12.9478C67.0832 13.6961 66.8123 14.5578 66.2247 15.1247C65.886 15.4422 65.2984 15.805 64.3722 15.805C63.7169 15.805 63.1297 15.6235 62.6552 15.1247C62.3389 14.7846 61.9999 14.2404 61.9999 13.4013C61.9999 12.5623 62.3162 11.8367 62.7683 11.3832C63.2651 10.8843 63.875 10.6349 64.6885 10.6349Z" fill="black"/>
<path d="M78.3538 10.7936L78.6701 8.16327H76.6818L77.0886 4.89795H73.835L73.4286 8.16327H72.2538L71.9375 10.7936H73.1123L72.1857 18.2766H75.4393L76.3655 10.7936H78.3538Z" fill="black"/>
<path d="M87.1139 8.16327L86.4813 13.4694C86.3458 14.6712 85.9618 15.1474 85.8259 15.2834C85.4646 15.6689 84.8547 15.8503 84.3348 15.8503C83.8604 15.8503 83.2958 15.6916 83.0018 15.4195C82.776 15.2154 82.5728 14.8526 82.5728 14.3084C82.5728 14.0589 82.6178 13.8322 82.6855 13.1973L83.2731 8.16327H80.0196L79.4096 13.3106C79.3646 13.6281 79.2969 14.3311 79.2969 14.7392C79.2969 15.805 79.7033 16.8254 80.3813 17.4603C81.5107 18.5487 83.2958 18.6168 84.3125 18.6168C85.4646 18.6168 87.0685 18.4807 88.266 17.3243C89.3958 16.2358 89.599 14.8299 89.7345 13.6281L90.3671 8.16327H87.1139Z" fill="black"/>
<path d="M100.108 8.84351C98.7302 7.89113 97.5327 7.82312 96.7869 7.82312C96.0642 7.82312 94.5054 7.89113 93.466 8.91156C92.9238 9.45578 92.5171 10.2948 92.5171 11.2698C92.5171 12.2449 92.9462 12.8118 93.1947 13.0839C93.6692 13.5601 94.3472 13.8322 94.8894 13.9909L95.6121 14.2177C95.8834 14.3084 96.1997 14.3764 96.4029 14.5124C96.5611 14.6258 96.7192 14.8072 96.7192 15.1474C96.7192 15.4648 96.5837 15.6462 96.3125 15.805C96.0415 15.9637 95.7252 16.0317 95.3185 16.0317C94.6181 16.0317 94.0309 15.7596 93.9178 15.7143C93.5111 15.5329 93.0366 15.2154 92.6752 14.8752L91.2969 17.0748C91.7713 17.5056 92.2912 17.8685 92.8561 18.1179C93.7596 18.5261 94.6181 18.6168 95.4767 18.6168C96.3579 18.6168 97.9394 18.4807 99.0238 17.3469C99.4529 16.9161 99.9728 16.0998 99.9728 14.8526C99.9728 14.0589 99.7469 13.4467 99.227 12.9251C98.6621 12.3356 97.9845 12.1088 97.4873 11.9728L96.7419 11.7687C96.177 11.61 96.0189 11.5419 95.9511 11.4966C95.7025 11.3378 95.6348 11.1338 95.6348 10.9524C95.6348 10.771 95.7252 10.5669 95.8607 10.4535C96.0866 10.2494 96.516 10.1814 96.8323 10.1814C97.6231 10.1814 98.2781 10.5215 98.7302 10.8617L100.108 8.84351Z" fill="black"/>
<path d="M6.49503 20.39C4.60017 19.6453 2.95086 18.2476 1.9183 16.31C-0.384212 11.9894 1.25177 6.62033 5.57237 4.31784C9.78014 2.07543 14.9824 3.56855 17.378 7.63901C16.2434 10.2691 14.433 13.0481 12.0416 15.6348C10.2773 17.5431 8.38393 19.1444 6.49503 20.39Z" fill="black"/>
<path d="M0.409702 22.4852C-0.576929 21.7432 0.375103 19.2809 1.607 17.6097L1.98825 18.148C1.53035 19.2291 0.732117 21.4271 4.00992 18.8924C7.28768 16.3578 12.7806 9.29449 15.1387 5.03417C17.0252 1.62593 14.9849 2.43542 13.7611 3.21891L13.2245 2.93032C14.4679 1.72544 16.634 0.274313 17.6707 0.73047C19.9194 1.71999 18.2448 8.15527 13.188 14.3953C8.13108 20.6354 1.80172 23.532 0.409702 22.4852Z" fill="black"/>
<path d="M18.5602 11.1771C18.9413 14.6729 17.2078 18.2091 13.9147 19.964C12.7944 20.5611 11.6036 20.8933 10.4141 20.9826C11.5604 18.8456 13.1059 16.6529 15.0036 14.568C16.1496 13.309 17.3468 12.1741 18.5602 11.1771Z" fill="black"/>
</g>
<defs>
<clipPath id="clip0_1_2324">
<rect width="100" height="22.695" fill="white"/>
</clipPath>
</defs>
</svg>

<svg xmlns="http://www.w3.org/2000/svg" width="278.261" height="64" fill="none" viewBox="0 0 100 23"><g fill="#000" clip-path="url(#a)"><path d="m24.399 8.163-1.243 10.114h3.254l1.242-10.114H24.4Zm.158-4.308c0 1.066.836 1.905 1.898 1.905a1.884 1.884 0 0 0 1.898-1.905 1.884 1.884 0 0 0-1.898-1.905 1.884 1.884 0 0 0-1.898 1.905ZM30.446 8.163l-1.243 10.114h3.253l.588-4.989c.068-.544.203-1.52.79-2.132.407-.408.904-.544 1.47-.544.338 0 .835.068 1.197.431.339.363.406.839.406 1.225 0 .158 0 .59-.135 1.632l-.542 4.377h3.253l.61-5.193c.135-1.089.158-1.587.158-1.928 0-.612-.068-1.632-.859-2.403-.768-.749-1.784-.862-2.62-.862-.7 0-1.265.045-1.988.431-.43.227-.859.544-1.243.952l.158-1.11h-3.253ZM50.42 8.844c-1.378-.953-2.575-1.02-3.32-1.02-.724 0-2.282.067-3.322 1.088a3.36 3.36 0 0 0-.949 2.358c0 .975.43 1.542.678 1.814.474.476 1.152.748 1.695.907l.722.227c.272.09.588.158.791.294a.725.725 0 0 1 .316.635c0 .318-.135.5-.406.658-.271.159-.588.227-.994.227-.7 0-1.288-.272-1.401-.318a4.799 4.799 0 0 1-1.243-.839l-1.378 2.2c.474.43.994.794 1.56 1.043.903.408 1.761.499 2.62.499.881 0 2.463-.136 3.547-1.27.429-.43.949-1.247.949-2.494 0-.794-.226-1.406-.746-1.928-.564-.59-1.242-.816-1.74-.952l-.745-.204c-.565-.159-.723-.227-.79-.272-.25-.16-.317-.363-.317-.545 0-.181.09-.385.226-.498.226-.205.655-.273.971-.273.791 0 1.446.34 1.898.68l1.378-2.017ZM58.096 10.794l.316-2.63h-1.988l.407-3.266h-3.253l-.407 3.265h-1.175l-.316 2.63h1.175l-.927 7.484h3.254l.926-7.483h1.988ZM67.332 9.388a3.633 3.633 0 0 0-1.378-1.18c-.655-.317-1.379-.385-1.966-.385-1.4 0-2.666.408-3.705 1.474-.971.998-1.627 2.494-1.627 4.354 0 1.746.61 2.925 1.356 3.719.88.93 1.875 1.247 3.118 1.247.384 0 1.175-.046 1.875-.363.542-.25 1.062-.703 1.423-1.134l-.248 1.157h3.253l1.243-10.114h-3.254l-.09 1.225Zm-2.643 1.247c.88 0 1.4.295 1.694.567.43.385.7 1.02.7 1.746 0 .748-.27 1.61-.858 2.177-.339.317-.927.68-1.853.68-.655 0-1.242-.181-1.717-.68-.316-.34-.655-.885-.655-1.724s.316-1.564.768-2.018c.497-.499 1.107-.748 1.92-.748ZM78.354 10.794l.316-2.63h-1.988l.407-3.266h-3.254l-.406 3.265h-1.175l-.317 2.63h1.175l-.926 7.484h3.253l.927-7.483h1.988ZM87.114 8.163l-.633 5.306c-.135 1.202-.52 1.678-.655 1.814-.361.386-.971.567-1.491.567-.475 0-1.04-.158-1.333-.43-.226-.205-.43-.567-.43-1.112 0-.25.046-.476.114-1.11l.587-5.035H80.02l-.61 5.148a13.15 13.15 0 0 0-.113 1.428c0 1.066.406 2.086 1.084 2.721 1.13 1.089 2.915 1.157 3.931 1.157 1.153 0 2.757-.136 3.954-1.293 1.13-1.088 1.333-2.494 1.468-3.696l.633-5.465h-3.253ZM100.108 8.844c-1.378-.953-2.575-1.02-3.321-1.02-.723 0-2.282.067-3.321 1.088a3.359 3.359 0 0 0-.949 2.358c0 .975.43 1.542.678 1.814.474.476 1.152.748 1.694.907l.723.227c.271.09.588.158.79.294a.725.725 0 0 1 .317.635c0 .318-.135.5-.406.658-.272.159-.588.227-.995.227-.7 0-1.287-.272-1.4-.318a4.8 4.8 0 0 1-1.243-.839l-1.378 2.2c.474.43.994.794 1.56 1.043.903.408 1.761.499 2.62.499.88 0 2.462-.136 3.547-1.27.429-.43.949-1.247.949-2.494 0-.794-.226-1.406-.746-1.928-.565-.59-1.243-.816-1.74-.952l-.745-.204c-.565-.159-.723-.227-.79-.272-.25-.16-.317-.363-.317-.545 0-.181.09-.385.226-.498.226-.205.655-.273.971-.273.791 0 1.446.34 1.898.68l1.378-2.017ZM6.495 20.39A8.865 8.865 0 1 1 17.378 7.639c-1.135 2.63-2.945 5.41-5.336 7.996-1.765 1.908-3.658 3.51-5.547 4.755Z"/><path d="M.41 22.485c-.987-.742-.035-3.204 1.197-4.875l.381.538c-.458 1.081-1.256 3.28 2.022.744 3.278-2.534 8.77-9.598 11.129-13.858 1.886-3.408-.154-2.599-1.378-1.815l-.536-.289C14.468 1.725 16.634.274 17.67.73c2.248.99.574 7.425-4.483 13.665-5.057 6.24-11.386 9.137-12.778 8.09ZM18.56 11.177a8.868 8.868 0 0 1-4.645 8.787 8.833 8.833 0 0 1-3.5 1.019c1.145-2.137 2.69-4.33 4.589-6.415a34.118 34.118 0 0 1 3.556-3.39Z"/></g><defs><clipPath id="a"><path fill="#fff" d="M0 0h100v22.695H0z"/></clipPath></defs></svg>
